!!!OTL: 559a. Staendchen.
!!!ARE: Europa, Mitteleuropa, Deutschland, Frankfurt a.M.
!!!SCT: E0559
!!!TXL: @@DE
!!!YEM: Copyright 1995, estate of Helmut Schaffrath.
**kern	**text
*ICvox	*
*M6/8	*
*k[b-e-a-]	*
*E-:	*
!LO:TX:a:t=Sehr mäßig.	!
!LO:TX:a:t=Aus der Gegend von Frankf. a. M.	!
{8b-	Ach,
=1	=1
4b-/	ſchönſter
8g	.
4e-	Schatʒ
8g	ver-
=2	=2
4b-/	-ʒeih
8g	es
4e-}	mir,
{8e-	daß
=3	=3
4a-	ich
8cc	ſo
8ee-L	ſpat
8ddJ	.
8cc	bin
=4	=4
4.cc	kom-
4b-}	-men;
{8g	doch
=5	=5
4a-	hat
8cc	die
8ccL	hei-
8b-J	.
8a-	-ße
=6	=6
4g	Lieb
8b-/	ʒu
8b-L	dir
8a-J}	.
{8g	mich
=7	=7
4f	noch
8b-/	da-
8b-L	-ʒu
8a-J	.
8f	ge-
=8	=8
4.f	-ʒwun-
4e-}	-gen.
{8g	doch
=9	=9
4a-	hat
8cc	die
8ccL	hei-
8b-J	.
8a-	-ße
=10	=10
4g	Lieb
8b-/	ʒu
8b-L	dir
8a-J}	.
{8g	mich
=11	=11
4f	noch
8b-/	da-
8b-L	-ʒu
8a-J	.
8f	ge-
=12	=12
4.f	-ʒwun-
4e-}	-gen.
==	==
!!!AGN: Liebes - Lied
!!!ONB: ESAC (Essen Associative Code) Database: ERK1
!!!AMT: compound duple
!!!AIN: vox
!!!EED: Helmut Schaffrath
!!!EEV: 1.0
!!!GTL: Liebeslieder [Neuere (aus dem 18. bis 19. Jahrh.) - Liebeslust]
!!!URL-scan: https://rosdok.uni-rostock.de/mcrviewer/recordIdentifier/rosdok_ppn745177662/iview2/phys_0389.iview2?x=-128.77276441889308&y=1473.9074454831425&scale=0.5870222003877485&rotation=0&layout=singlePageLayout
!!!ENC: Anna Maria Matuszewska
!!!EEV: 2024/10/12
*-	*-
